framework/flag-icon-css/mu.svg

<svg xmlns="http://www.w3.org/2000/svg" height="480" width="640" viewBox="0 0 640 480">
  <g fill-rule="evenodd">
    <path fill="#009a00" d="M0 360h640v120H0z"/>
    <path fill="#00f" d="M0 120h640v120H0z"/>
    <path fill="red" d="M0 0h640v120H0z"/>
    <path fill="#ff0" d="M0 240h640v120H0z"/>
  </g>
</svg>

<?xml version="1.0" encoding="UTF-8" standalone="no"?>
<svg
   xmlns:dc="http://purl.org/dc/elements/1.1/"
   xmlns:cc="http://creativecommons.org/ns#"
   xmlns:rdf="http://www.w3.org/1999/02/22-rdf-syntax-ns#"
   xmlns:svg="http://www.w3.org/2000/svg"
   xmlns="http://www.w3.org/2000/svg"
   xmlns:sodipodi="http://sodipodi.sourceforge.net/DTD/sodipodi-0.dtd"
   xmlns:inkscape="http://www.inkscape.org/namespaces/inkscape"
   height="15.999998"
   width="21.333332"
   viewBox="0 0 21.333332 15.999998"
   version="1.1"
   id="svg12"
   sodipodi:docname="mu.svg"
   inkscape:version="0.92.1 r">
  <metadata
     id="metadata18">
    <rdf:RDF>
      <cc:Work
         rdf:about="">
        <dc:format>image/svg+xml</dc:format>
        <dc:type
           rdf:resource="http://purl.org/dc/dcmitype/StillImage" />
        <dc:title></dc:title>
      </cc:Work>
    </rdf:RDF>
  </metadata>
  <defs
     id="defs16" />
  <sodipodi:namedview
     pagecolor="#ffffff"
     bordercolor="#666666"
     borderopacity="1"
     objecttolerance="10"
     gridtolerance="10"
     guidetolerance="10"
     inkscape:pageopacity="0"
     inkscape:pageshadow="2"
     inkscape:window-width="1920"
     inkscape:window-height="1024"
     id="namedview14"
     showgrid="false"
     fit-margin-top="0"
     fit-margin-left="0"
     fit-margin-right="0"
     fit-margin-bottom="0"
     inkscape:zoom="0.49166667"
     inkscape:cx="320"
     inkscape:cy="240"
     inkscape:window-x="0"
     inkscape:window-y="0"
     inkscape:window-maximized="1"
     inkscape:current-layer="svg12" />
  <g
     id="g10"
     transform="scale(0.03333333)"
     style="fill-rule:evenodd">
    <path
       d="M 0,360 H 640 V 480 H 0 Z"
       id="path2"
       inkscape:connector-curvature="0"
       style="fill:#009a00" />
    <path
       d="M 0,120 H 640 V 240 H 0 Z"
       id="path4"
       inkscape:connector-curvature="0"
       style="fill:#0000ff" />
    <path
       d="M 0,0 H 640 V 120 H 0 Z"
       id="path6"
       inkscape:connector-curvature="0"
       style="fill:#ff0000" />
    <path
       d="M 0,240 H 640 V 360 H 0 Z"
       id="path8"
       inkscape:connector-curvature="0"
       style="fill:#ffff00" />
  </g>
</svg>
